dressly/src/assets/icons/playstore.svg

<svg width="167" height="47" viewBox="0 0 167 47" fill="none" xmlns="http://www.w3.org/2000/svg">
<rect width="167" height="47" rx="8" fill="#12070B"/>
<path d="M51.6794 26.5737C54.0537 25.2731 55.8539 24.2823 56.009 24.2054C56.5052 23.942 57.0178 23.2452 56.009 22.704C55.6833 22.5338 53.9295 21.5737 51.6794 20.3357L48.5603 23.4777L51.6792 26.5737H51.6794Z" fill="#FFD900"/>
<path d="M48.5603 23.4778L38.6284 33.4624C38.8613 33.4932 39.1245 33.4315 39.435 33.2613C40.0865 32.9057 46.9924 29.1437 51.6795 26.5744L48.5603 23.4778Z" fill="#F43249"/>
<path d="M48.5603 23.4777L51.6792 20.3509C51.6792 20.3509 40.1336 14.066 39.4348 13.6952C39.172 13.5392 38.877 13.4931 38.6131 13.5392L48.5603 23.4775V23.4777Z" fill="#00EE76"/>
<path d="M48.5603 23.4781L38.6129 13.5398C38.2092 13.6328 37.868 13.9886 37.868 14.7159V32.2861C37.868 32.9522 38.132 33.4318 38.6282 33.4779L48.5601 23.4779L48.5603 23.4781Z" fill="#00D3FF"/>
<path d="M69.6789 15.0502H70.6489V18.2902C70.5689 18.3169 70.4522 18.3469 70.2989 18.3802C70.1522 18.4135 69.9789 18.4469 69.7789 18.4802C69.5855 18.5135 69.3722 18.5402 69.1389 18.5602C68.9055 18.5869 68.6689 18.6002 68.4289 18.6002C67.9422 18.6002 67.4989 18.5202 67.0989 18.3602C66.6989 18.2002 66.3555 17.9669 66.0689 17.6602C65.7822 17.3535 65.5589 16.9769 65.3989 16.5302C65.2455 16.0835 65.1689 15.5702 65.1689 14.9902C65.1689 14.4102 65.2555 13.8969 65.4289 13.4502C65.6089 12.9969 65.8489 12.6169 66.1489 12.3102C66.4489 12.0035 66.7989 11.7702 67.1989 11.6102C67.6055 11.4502 68.0389 11.3702 68.4989 11.3702C68.8122 11.3702 69.0889 11.3902 69.3289 11.4302C69.5755 11.4702 69.7855 11.5169 69.9589 11.5702C70.1322 11.6235 70.2722 11.6769 70.3789 11.7302C70.4922 11.7835 70.5689 11.8235 70.6089 11.8502L70.2989 12.6602C70.1055 12.5335 69.8489 12.4302 69.5289 12.3502C69.2089 12.2635 68.8822 12.2202 68.5489 12.2202C68.1955 12.2202 67.8722 12.2835 67.5789 12.4102C67.2922 12.5369 67.0455 12.7202 66.8389 12.9602C66.6389 13.2002 66.4822 13.4935 66.3689 13.8402C66.2555 14.1802 66.1989 14.5635 66.1989 14.9902C66.1989 15.4035 66.2455 15.7802 66.3389 16.1202C66.4389 16.4602 66.5855 16.7535 66.7789 17.0002C66.9789 17.2402 67.2222 17.4269 67.5089 17.5602C67.8022 17.6935 68.1455 17.7602 68.5389 17.7602C68.8189 17.7602 69.0555 17.7469 69.2489 17.7202C69.4489 17.6869 69.5922 17.6569 69.6789 17.6302V15.0502ZM72.1676 18.4602V11.5302H76.3976V12.3602H73.1376V14.4202H76.0376V15.2302H73.1376V17.6302H76.6476V18.4602H72.1676ZM82.5105 11.5302V12.3702H80.3305V18.4602H79.3605V12.3702H77.1805V11.5302H82.5105ZM85.8493 11.5302H86.8193V18.4602H85.8493V11.5302ZM93.1648 11.5302V12.3702H90.9848V18.4602H90.0148V12.3702H87.8348V11.5302H93.1648ZM96.2236 14.9902C96.2236 14.3969 96.3102 13.8735 96.4836 13.4202C96.6636 12.9669 96.9036 12.5902 97.2036 12.2902C97.5102 11.9835 97.8636 11.7535 98.2636 11.6002C98.6702 11.4469 99.1002 11.3702 99.5536 11.3702C100 11.3702 100.42 11.4469 100.814 11.6002C101.214 11.7535 101.564 11.9835 101.864 12.2902C102.164 12.5902 102.4 12.9669 102.574 13.4202C102.754 13.8735 102.844 14.3969 102.844 14.9902C102.844 15.5835 102.754 16.1069 102.574 16.5602C102.4 17.0135 102.164 17.3935 101.864 17.7002C101.564 18.0002 101.214 18.2269 100.814 18.3802C100.42 18.5335 100 18.6102 99.5536 18.6102C99.1002 18.6102 98.6702 18.5335 98.2636 18.3802C97.8636 18.2269 97.5102 18.0002 97.2036 17.7002C96.9036 17.3935 96.6636 17.0135 96.4836 16.5602C96.3102 16.1069 96.2236 15.5835 96.2236 14.9902ZM97.2436 14.9902C97.2436 15.4102 97.2969 15.7935 97.4036 16.1402C97.5102 16.4802 97.6602 16.7702 97.8536 17.0102C98.0536 17.2502 98.2936 17.4369 98.5736 17.5702C98.8602 17.6969 99.1802 17.7602 99.5336 17.7602C99.8869 17.7602 100.204 17.6969 100.484 17.5702C100.764 17.4369 101 17.2502 101.194 17.0102C101.394 16.7702 101.547 16.4802 101.654 16.1402C101.76 15.7935 101.814 15.4102 101.814 14.9902C101.814 14.5702 101.76 14.1902 101.654 13.8502C101.547 13.5035 101.394 13.2102 101.194 12.9702C101 12.7302 100.764 12.5469 100.484 12.4202C100.204 12.2869 99.8869 12.2202 99.5336 12.2202C99.1802 12.2202 98.8602 12.2869 98.5736 12.4202C98.2936 12.5469 98.0536 12.7302 97.8536 12.9702C97.6602 13.2102 97.5102 13.5035 97.4036 13.8502C97.2969 14.1902 97.2436 14.5702 97.2436 14.9902ZM109.037 18.4602C108.89 18.2135 108.72 17.9369 108.527 17.6302C108.34 17.3235 108.137 17.0069 107.917 16.6802C107.697 16.3469 107.467 16.0102 107.227 15.6702C106.993 15.3302 106.76 15.0035 106.527 14.6902C106.293 14.3702 106.067 14.0702 105.847 13.7902C105.627 13.5102 105.423 13.2635 105.237 13.0502V18.4602H104.287V11.5302H105.057C105.37 11.8635 105.703 12.2535 106.057 12.7002C106.417 13.1402 106.77 13.5969 107.117 14.0702C107.47 14.5369 107.8 14.9969 108.107 15.4502C108.42 15.9035 108.683 16.3069 108.897 16.6602V11.5302H109.847V18.4602H109.037Z" fill="white"/>
<path d="M85.2138 28.0819C83.4293 28.0819 81.9549 29.4594 81.9549 31.348C81.9549 33.2212 83.4138 34.6141 85.214 34.6141C87.014 34.6141 88.4727 33.2366 88.4727 31.348C88.4727 29.4594 87.014 28.0819 85.2138 28.0819ZM85.2138 33.3144C84.2359 33.3144 83.3829 32.4938 83.3829 31.3334C83.3829 30.157 84.2366 29.3524 85.2138 29.3524C86.191 29.3524 87.0447 30.157 87.0447 31.3334C87.0447 32.4938 86.191 33.3144 85.2138 33.3144ZM78.1218 28.0819C76.3216 28.0819 74.8627 29.4594 74.8627 31.348C74.8627 33.2212 76.3216 34.6141 78.1218 34.6141C79.9218 34.6141 81.3807 33.2366 81.3807 31.348C81.3807 29.4594 79.9218 28.0819 78.1216 28.0819H78.1218ZM78.1218 33.3144C77.1437 33.3144 76.2909 32.4938 76.2909 31.3334C76.2909 30.157 77.1446 29.3524 78.1218 29.3524C79.0997 29.3524 79.9527 30.157 79.9527 31.3334C79.9527 32.4938 79.1143 33.3144 78.1218 33.3144ZM69.695 29.0882V30.4656H72.9847C72.8912 31.2395 72.6282 31.8122 72.2399 32.1995C71.7591 32.6792 71.0141 33.2058 69.695 33.2058C67.6617 33.2058 66.0949 31.5651 66.0949 29.5372C66.0949 27.5092 67.6626 25.8375 69.695 25.8375C70.7965 25.8375 71.5885 26.2711 72.1781 26.8285L73.1553 25.8529C72.3325 25.0638 71.2311 24.4602 69.695 24.4602C66.9168 24.4602 64.5889 26.7353 64.5889 29.5063C64.5889 32.2775 66.9168 34.5526 69.695 34.5526C71.2002 34.5526 72.3179 34.0575 73.2178 33.1282C74.1334 32.215 74.4127 30.9299 74.4127 29.8929C74.4127 29.568 74.382 29.2738 74.3349 29.026L69.695 29.0882ZM104.178 30.1561C103.914 29.4285 103.076 28.0819 101.4 28.0819C99.7231 28.0819 98.3421 29.3978 98.3421 31.348C98.3421 33.1743 99.7231 34.6141 101.555 34.6141C103.045 34.6141 103.898 33.7009 104.255 33.1743L103.153 32.4314C102.781 32.9734 102.284 33.329 101.555 33.329C100.825 33.329 100.314 33.0041 99.9872 32.3382L104.317 30.5273L104.178 30.1561ZM99.7702 31.2556C99.7394 30.0014 100.748 29.3516 101.461 29.3516C102.036 29.3516 102.501 29.6302 102.672 30.0483L99.7702 31.2556ZM96.2474 34.3977H97.6754V24.8312H96.2474V34.3977ZM93.9201 28.8095H93.8737C93.548 28.4222 92.9429 28.0819 92.1663 28.0819C90.5368 28.0819 89.0625 29.5217 89.0625 31.348C89.0625 33.1743 90.5522 34.5989 92.1663 34.5989C92.942 34.5989 93.5473 34.2583 93.8737 33.8556H93.9201V34.32C93.9201 35.5743 93.2523 36.2394 92.1818 36.2394C91.3127 36.2394 90.7692 35.605 90.5523 35.0783L89.3111 35.605C89.6676 36.4719 90.6148 37.5399 92.1818 37.5399C93.8576 37.5399 95.2701 36.549 95.2701 34.1499V28.2829H93.9201V28.8095ZM92.2905 33.3144C91.3126 33.3144 90.4906 32.4938 90.4906 31.3488C90.4906 30.2039 91.3133 29.3677 92.2905 29.3677C93.2532 29.3677 94.0289 30.2039 94.0289 31.3488C94.0282 32.4783 93.2523 33.3144 92.2905 33.3144ZM110.835 24.8314H107.421V34.3977H108.849V30.7751H110.835C112.418 30.7751 113.97 29.6294 113.97 27.8033C113.97 25.977 112.418 24.8312 110.835 24.8312V24.8314ZM110.882 29.4448H108.864V26.1624H110.882C111.937 26.1624 112.557 27.0448 112.557 27.8031C112.543 28.5461 111.938 29.4448 110.882 29.4448ZM119.666 28.0665C118.642 28.0665 117.571 28.5155 117.136 29.5372L118.394 30.0638C118.673 29.5372 119.169 29.367 119.697 29.367C120.442 29.367 121.187 29.8158 121.203 30.605V30.6982C120.939 30.5434 120.396 30.3263 119.713 30.3263C118.347 30.3263 116.966 31.0848 116.966 32.4783C116.966 33.7633 118.083 34.5834 119.325 34.5834C120.287 34.5834 120.814 34.1499 121.14 33.6394H121.186V34.3824H122.567V30.7134C122.552 29.0265 121.295 28.0663 119.666 28.0663V28.0665ZM119.495 33.299C119.03 33.299 118.377 33.0665 118.377 32.4944C118.377 31.7514 119.184 31.4727 119.883 31.4727C120.503 31.4727 120.798 31.6121 121.186 31.7977C121.078 32.68 120.317 33.299 119.495 33.299ZM127.549 28.2838L125.92 32.4166H125.873L124.182 28.2836H122.646L125.191 34.0727L123.747 37.3082H125.237L129.132 28.2836H127.549L127.549 28.2838ZM114.762 34.3977H116.19V24.8312H114.762V34.3977Z" fill="white"/>
</svg>

<svg xmlns="http://www.w3.org/2000/svg" width="167" height="47" fill="none"><rect width="167" height="47" fill="#12070B" rx="8"/><path fill="#FFD900" d="M51.68 26.574c2.374-1.3 4.174-2.292 4.329-2.369.496-.263 1.009-.96 0-1.501-.326-.17-2.08-1.13-4.33-2.368l-3.119 3.142z"/><path fill="#F43249" d="m48.56 23.478-9.932 9.984c.233.031.496-.03.807-.2.651-.356 7.557-4.118 12.244-6.688z"/><path fill="#00EE76" d="m48.56 23.478 3.12-3.127s-11.546-6.285-12.245-6.656c-.263-.156-.558-.202-.822-.156z"/><path fill="#00D3FF" d="m48.56 23.478-9.947-9.938c-.404.093-.745.449-.745 1.176v17.57c0 .666.264 1.146.76 1.192z"/><path fill="#fff" d="M69.679 15.05h.97v3.24q-.12.04-.35.09a9 9 0 0 1-1.16.18q-.35.04-.71.04-.73 0-1.33-.24t-1.03-.7a3.2 3.2 0 0 1-.67-1.13q-.23-.67-.23-1.54t.26-1.54q.27-.68.72-1.14t1.05-.7q.61-.24 1.3-.24a5.1 5.1 0 0 1 1.46.2q.26.08.42.16.17.08.23.12l-.31.81a2.5 2.5 0 0 0-.77-.31 3.7 3.7 0 0 0-.98-.13 2.4 2.4 0 0 0-.97.19q-.43.19-.74.55-.3.36-.47.88-.17.51-.17 1.15 0 .62.14 1.13.15.51.44.88.3.36.73.56.44.2 1.03.2.42 0 .71-.04.3-.05.43-.09zm2.489 3.41v-6.93h4.23v.83h-3.26v2.06h2.9v.81h-2.9v2.4h3.51v.83zm10.342-6.93v.84h-2.18v6.09h-.97v-6.09h-2.18v-.84zm3.34 0h.97v6.93h-.97zm7.315 0v.84h-2.18v6.09h-.97v-6.09h-2.18v-.84zm3.059 3.46q0-.89.26-1.57.27-.68.72-1.13.46-.459 1.06-.69.609-.23 1.29-.23.669 0 1.26.23.6.23 1.05.69.45.45.71 1.13.27.68.27 1.57t-.27 1.57a3.3 3.3 0 0 1-.71 1.14q-.45.45-1.05.68-.591.23-1.26.23-.681 0-1.29-.23-.6-.23-1.06-.68-.45-.459-.72-1.14-.26-.68-.26-1.57m1.02 0q0 .63.16 1.15.159.51.45.87.3.36.72.56.429.19.96.19t.95-.19q.42-.2.71-.56.3-.36.46-.87.16-.52.16-1.15t-.16-1.14a2.5 2.5 0 0 0-.46-.88 1.9 1.9 0 0 0-.71-.55q-.42-.2-.95-.2a2.25 2.25 0 0 0-.96.2 2 2 0 0 0-.72.55q-.291.36-.45.88-.16.51-.16 1.14m11.793 3.47a41 41 0 0 0-.51-.83q-.28-.46-.61-.95-.33-.5-.69-1.01-.35-.51-.7-.98-.35-.48-.68-.9t-.61-.74v5.41h-.95v-6.93h.77q.47.501 1 1.17.54.66 1.06 1.37.53.7.99 1.38.47.68.79 1.21v-5.13h.95v6.93zm-23.823 9.622c-1.785 0-3.26 1.377-3.26 3.266 0 1.873 1.46 3.266 3.26 3.266s3.259-1.377 3.259-3.266-1.459-3.266-3.26-3.266m0 5.232c-.978 0-1.831-.82-1.831-1.98 0-1.177.854-1.982 1.83-1.982.978 0 1.832.805 1.832 1.981 0 1.16-.854 1.981-1.831 1.981m-7.092-5.232c-1.8 0-3.26 1.377-3.26 3.266 0 1.873 1.46 3.266 3.26 3.266s3.259-1.377 3.259-3.266-1.46-3.266-3.26-3.266m0 5.232c-.978 0-1.831-.82-1.831-1.98 0-1.177.854-1.982 1.83-1.982.979 0 1.832.805 1.832 1.981 0 1.16-.839 1.981-1.831 1.981m-8.427-4.226v1.378h3.29c-.094.773-.357 1.346-.745 1.733-.48.48-1.226 1.007-2.545 1.007-2.033 0-3.6-1.64-3.6-3.669s1.568-3.7 3.6-3.7c1.102 0 1.894.434 2.483.991l.977-.975c-.823-.79-1.924-1.393-3.46-1.393-2.778 0-5.106 2.275-5.106 5.046s2.328 5.047 5.106 5.047c1.505 0 2.623-.495 3.523-1.425.915-.913 1.195-2.198 1.195-3.235 0-.325-.031-.62-.078-.867zm34.483 1.068c-.264-.727-1.102-2.074-2.778-2.074-1.677 0-3.058 1.316-3.058 3.266 0 1.826 1.381 3.266 3.213 3.266 1.49 0 2.343-.913 2.7-1.44l-1.102-.743c-.372.542-.869.898-1.598.898s-1.241-.325-1.568-.99l4.33-1.812zm-4.408 1.1c-.03-1.255.978-1.904 1.691-1.904.575 0 1.04.278 1.211.696zm-3.523 3.142h1.428V24.83h-1.428zm-2.327-5.589h-.046c-.326-.387-.931-.727-1.708-.727-1.63 0-3.103 1.44-3.103 3.266s1.49 3.25 3.103 3.25c.776 0 1.381-.34 1.708-.742h.046v.464c0 1.254-.668 1.92-1.738 1.92-.87 0-1.413-.635-1.63-1.162l-1.24.527c.356.867 1.303 1.935 2.87 1.935 1.676 0 3.088-.991 3.088-3.39v-5.867h-1.35zm-1.63 4.505c-.977 0-1.8-.82-1.8-1.965s.823-1.981 1.8-1.981c.963 0 1.739.836 1.739 1.98 0 1.13-.777 1.966-1.739 1.966m18.545-8.483h-3.414v9.567h1.428v-3.623h1.986c1.583 0 3.135-1.146 3.135-2.972s-1.552-2.972-3.135-2.972m.047 4.614h-2.018v-3.283h2.018c1.055 0 1.675.883 1.675 1.641-.014.743-.619 1.642-1.675 1.642m8.784-1.378c-1.024 0-2.095.448-2.53 1.47l1.258.527c.279-.527.775-.697 1.303-.697.745 0 1.49.449 1.506 1.238v.093c-.264-.155-.807-.372-1.49-.372-1.366 0-2.747.759-2.747 2.152 0 1.285 1.117 2.105 2.359 2.105.962 0 1.489-.433 1.815-.944h.046v.743h1.381v-3.669c-.015-1.687-1.272-2.647-2.901-2.647m-.171 5.232c-.465 0-1.118-.233-1.118-.805 0-.743.807-1.021 1.506-1.021.62 0 .915.14 1.303.325a1.716 1.716 0 0 1-1.691 1.501m8.054-5.015-1.629 4.133h-.047l-1.691-4.133h-1.536l2.545 5.789-1.444 3.235h1.49l3.895-9.024zm-12.787 6.114h1.428V24.83h-1.428z"/></svg>
